assets/components_previews/disclosure/dark/segmented_control.svg

<svg xmlns="http://www.w3.org/2000/svg" width="320" height="232" fill="none" viewBox="0 0 320 232"><g filter="url(#a)"><rect width="164" height="40" x="78.5" y="94" fill="#140E2B" rx="12"/><rect width="52" height="32" x="82.5" y="98" fill="#5F43D0" rx="10"/><path fill="#16112C" d="M103.344 119.126q-1.96 0-3.136-.868-1.176-.882-1.372-2.478h2.072q.098.812.784 1.288.686.462 1.75.462.868 0 1.33-.308.476-.308.476-.826 0-.49-.28-.784-.28-.308-.966-.49l-1.876-.518q-1.442-.406-2.114-1.106-.658-.714-.658-1.778 0-.91.462-1.568.476-.672 1.33-1.022.854-.364 2.002-.364 1.764 0 2.814.84 1.05.826 1.19 2.198h-2.072q-.14-.742-.686-1.092-.532-.35-1.372-.35-.728 0-1.162.28t-.434.756q0 .364.238.672.238.294.994.504l1.876.518q1.484.406 2.128 1.12.658.7.658 1.778 0 1.512-1.05 2.324t-2.926.812m9.588.014q-1.092 0-2.016-.378a4.9 4.9 0 0 1-1.61-1.092 5 5 0 0 1-1.05-1.652 5.7 5.7 0 0 1-.378-2.1q0-1.134.364-2.072a4.9 4.9 0 0 1 1.05-1.624 4.6 4.6 0 0 1 1.61-1.064 5.3 5.3 0 0 1 2.03-.378q1.245 0 2.24.49 1.008.476 1.638 1.358.643.868.784 2.044h-2.1q-.183-1.078-.882-1.624-.7-.56-1.666-.56-.855 0-1.512.406-.645.406-1.008 1.176-.364.756-.364 1.834 0 1.092.364 1.89.378.784 1.036 1.218.657.42 1.512.42.91 0 1.61-.546t.91-1.624h2.128q-.183 1.176-.826 2.058a4.35 4.35 0 0 1-1.638 1.344q-.995.476-2.226.476"/><path fill="#5F43D0" d="M155.344 119.126q-1.96 0-3.136-.868-1.176-.882-1.372-2.478h2.072q.098.812.784 1.288.686.462 1.75.462.868 0 1.33-.308.476-.308.476-.826 0-.49-.28-.784-.28-.308-.966-.49l-1.876-.518q-1.442-.406-2.114-1.106-.658-.714-.658-1.778 0-.91.462-1.568.476-.672 1.33-1.022.854-.364 2.002-.364 1.764 0 2.814.84 1.05.826 1.19 2.198h-2.072q-.14-.742-.686-1.092-.532-.35-1.372-.35-.728 0-1.162.28t-.434.756q0 .364.238.672.238.294.994.504l1.876.518q1.484.406 2.128 1.12.658.7.658 1.778 0 1.512-1.05 2.324t-2.926.812m9.588.014q-1.092 0-2.016-.378a4.9 4.9 0 0 1-1.61-1.092 5 5 0 0 1-1.05-1.652 5.7 5.7 0 0 1-.378-2.1q0-1.134.364-2.072a4.9 4.9 0 0 1 1.05-1.624 4.6 4.6 0 0 1 1.61-1.064 5.3 5.3 0 0 1 2.03-.378q1.245 0 2.24.49 1.008.476 1.638 1.358.643.868.784 2.044h-2.1q-.183-1.078-.882-1.624-.7-.56-1.666-.56-.855 0-1.512.406-.645.406-1.008 1.176-.364.756-.364 1.834 0 1.092.364 1.89.378.784 1.036 1.218.657.42 1.512.42.91 0 1.61-.546t.91-1.624h2.128q-.183 1.176-.826 2.058a4.35 4.35 0 0 1-1.638 1.344q-.995.476-2.226.476m42.412-.014q-1.96 0-3.136-.868-1.176-.882-1.372-2.478h2.072q.098.812.784 1.288.686.462 1.75.462.868 0 1.33-.308.476-.308.476-.826 0-.49-.28-.784-.28-.308-.966-.49l-1.876-.518q-1.442-.406-2.114-1.106-.658-.714-.658-1.778 0-.91.462-1.568.476-.672 1.33-1.022.854-.364 2.002-.364 1.764 0 2.814.84 1.05.826 1.19 2.198h-2.072q-.14-.742-.686-1.092-.532-.35-1.372-.35-.728 0-1.162.28t-.434.756q0 .364.238.672.238.294.994.504l1.876.518q1.484.406 2.128 1.12.658.7.658 1.778 0 1.512-1.05 2.324t-2.926.812m9.588.014q-1.092 0-2.016-.378a4.9 4.9 0 0 1-1.61-1.092 5 5 0 0 1-1.05-1.652 5.7 5.7 0 0 1-.378-2.1q0-1.134.364-2.072a4.9 4.9 0 0 1 1.05-1.624 4.6 4.6 0 0 1 1.61-1.064 5.3 5.3 0 0 1 2.03-.378q1.245 0 2.24.49 1.008.476 1.638 1.358.643.868.784 2.044h-2.1q-.183-1.078-.882-1.624-.7-.56-1.666-.56-.855 0-1.512.406-.645.406-1.008 1.176-.364.756-.364 1.834 0 1.092.364 1.89.378.784 1.036 1.218.657.42 1.512.42.91 0 1.61-.546t.91-1.624h2.128q-.183 1.176-.826 2.058a4.35 4.35 0 0 1-1.638 1.344q-.995.476-2.226.476"/></g><path stroke="#5F43D0" stroke-linecap="round" d="M188.5 130V98"/><defs><filter id="a" width="204" height="80" x="58.5" y="86" color-interpolation-filters="sRGB" filterUnits="userSpaceOnUse"><feFlood flood-opacity="0" result="BackgroundImageFix"/><feColorMatrix in="SourceAlpha" result="hardAlpha" values="0 0 0 0 0 0 0 0 0 0 0 0 0 0 0 0 0 0 127 0"/><feOffset dy="12"/><feGaussianBlur stdDeviation="10"/><feComposite in2="hardAlpha" operator="out"/><feColorMatrix values="0 0 0 0 0 0 0 0 0 0 0 0 0 0 0 0 0 0 0.03 0"/><feBlend in2="BackgroundImageFix" result="effect1_dropShadow_7_1169"/><feColorMatrix in="SourceAlpha" result="hardAlpha" values="0 0 0 0 0 0 0 0 0 0 0 0 0 0 0 0 0 0 127 0"/><feOffset dy="2"/><feGaussianBlur stdDeviation="3"/><feComposite in2="hardAlpha" operator="out"/><feColorMatrix values="0 0 0 0 0 0 0 0 0 0 0 0 0 0 0 0 0 0 0.05 0"/><feBlend in2="effect1_dropShadow_7_1169" result="effect2_dropShadow_7_1169"/><feBlend in="SourceGraphic" in2="effect2_dropShadow_7_1169" result="shape"/></filter></defs></svg>

<svg width="320" height="232" viewBox="0 0 320 232" fill="none" xmlns="http://www.w3.org/2000/svg">
<g filter="url(#filter0_dd_7_1169)">
<rect x="78.5" y="94" width="164" height="40" rx="12" fill="#140E2B"/>
<rect x="82.5" y="98" width="52" height="32" rx="10" fill="#5F43D0"/>
<path d="M103.344 119.126C102.037 119.126 100.992 118.837 100.208 118.258C99.424 117.67 98.9667 116.844 98.836 115.78H100.908C100.973 116.321 101.235 116.751 101.692 117.068C102.149 117.376 102.733 117.53 103.442 117.53C104.021 117.53 104.464 117.427 104.772 117.222C105.089 117.017 105.248 116.741 105.248 116.396C105.248 116.069 105.155 115.808 104.968 115.612C104.781 115.407 104.459 115.243 104.002 115.122L102.126 114.604C101.165 114.333 100.46 113.965 100.012 113.498C99.5733 113.022 99.354 112.429 99.354 111.72C99.354 111.113 99.508 110.591 99.816 110.152C100.133 109.704 100.577 109.363 101.146 109.13C101.715 108.887 102.383 108.766 103.148 108.766C104.324 108.766 105.262 109.046 105.962 109.606C106.662 110.157 107.059 110.889 107.152 111.804H105.08C104.987 111.309 104.758 110.945 104.394 110.712C104.039 110.479 103.582 110.362 103.022 110.362C102.537 110.362 102.149 110.455 101.86 110.642C101.571 110.829 101.426 111.081 101.426 111.398C101.426 111.641 101.505 111.865 101.664 112.07C101.823 112.266 102.154 112.434 102.658 112.574L104.534 113.092C105.523 113.363 106.233 113.736 106.662 114.212C107.101 114.679 107.32 115.271 107.32 115.99C107.32 116.998 106.97 117.773 106.27 118.314C105.57 118.855 104.595 119.126 103.344 119.126ZM112.932 119.14C112.204 119.14 111.532 119.014 110.916 118.762C110.3 118.501 109.763 118.137 109.306 117.67C108.858 117.203 108.508 116.653 108.256 116.018C108.004 115.374 107.878 114.674 107.878 113.918C107.878 113.162 107.999 112.471 108.242 111.846C108.494 111.221 108.844 110.679 109.292 110.222C109.749 109.755 110.286 109.401 110.902 109.158C111.518 108.906 112.194 108.78 112.932 108.78C113.762 108.78 114.509 108.943 115.172 109.27C115.844 109.587 116.39 110.04 116.81 110.628C117.239 111.207 117.5 111.888 117.594 112.672H115.494C115.372 111.953 115.078 111.412 114.612 111.048C114.145 110.675 113.59 110.488 112.946 110.488C112.376 110.488 111.872 110.623 111.434 110.894C111.004 111.165 110.668 111.557 110.426 112.07C110.183 112.574 110.062 113.185 110.062 113.904C110.062 114.632 110.183 115.262 110.426 115.794C110.678 116.317 111.023 116.723 111.462 117.012C111.9 117.292 112.404 117.432 112.974 117.432C113.58 117.432 114.117 117.25 114.584 116.886C115.05 116.522 115.354 115.981 115.494 115.262H117.622C117.5 116.046 117.225 116.732 116.796 117.32C116.366 117.899 115.82 118.347 115.158 118.664C114.495 118.981 113.753 119.14 112.932 119.14Z" fill="#16112C"/>
<path d="M155.344 119.126C154.037 119.126 152.992 118.837 152.208 118.258C151.424 117.67 150.967 116.844 150.836 115.78H152.908C152.973 116.321 153.235 116.751 153.692 117.068C154.149 117.376 154.733 117.53 155.442 117.53C156.021 117.53 156.464 117.427 156.772 117.222C157.089 117.017 157.248 116.741 157.248 116.396C157.248 116.069 157.155 115.808 156.968 115.612C156.781 115.407 156.459 115.243 156.002 115.122L154.126 114.604C153.165 114.333 152.46 113.965 152.012 113.498C151.573 113.022 151.354 112.429 151.354 111.72C151.354 111.113 151.508 110.591 151.816 110.152C152.133 109.704 152.577 109.363 153.146 109.13C153.715 108.887 154.383 108.766 155.148 108.766C156.324 108.766 157.262 109.046 157.962 109.606C158.662 110.157 159.059 110.889 159.152 111.804H157.08C156.987 111.309 156.758 110.945 156.394 110.712C156.039 110.479 155.582 110.362 155.022 110.362C154.537 110.362 154.149 110.455 153.86 110.642C153.571 110.829 153.426 111.081 153.426 111.398C153.426 111.641 153.505 111.865 153.664 112.07C153.823 112.266 154.154 112.434 154.658 112.574L156.534 113.092C157.523 113.363 158.233 113.736 158.662 114.212C159.101 114.679 159.32 115.271 159.32 115.99C159.32 116.998 158.97 117.773 158.27 118.314C157.57 118.855 156.595 119.126 155.344 119.126ZM164.932 119.14C164.204 119.14 163.532 119.014 162.916 118.762C162.3 118.501 161.763 118.137 161.306 117.67C160.858 117.203 160.508 116.653 160.256 116.018C160.004 115.374 159.878 114.674 159.878 113.918C159.878 113.162 159.999 112.471 160.242 111.846C160.494 111.221 160.844 110.679 161.292 110.222C161.749 109.755 162.286 109.401 162.902 109.158C163.518 108.906 164.194 108.78 164.932 108.78C165.762 108.78 166.509 108.943 167.172 109.27C167.844 109.587 168.39 110.04 168.81 110.628C169.239 111.207 169.5 111.888 169.594 112.672H167.494C167.372 111.953 167.078 111.412 166.612 111.048C166.145 110.675 165.59 110.488 164.946 110.488C164.376 110.488 163.872 110.623 163.434 110.894C163.004 111.165 162.668 111.557 162.426 112.07C162.183 112.574 162.062 113.185 162.062 113.904C162.062 114.632 162.183 115.262 162.426 115.794C162.678 116.317 163.023 116.723 163.462 117.012C163.9 117.292 164.404 117.432 164.974 117.432C165.58 117.432 166.117 117.25 166.584 116.886C167.05 116.522 167.354 115.981 167.494 115.262H169.622C169.5 116.046 169.225 116.732 168.796 117.32C168.366 117.899 167.82 118.347 167.158 118.664C166.495 118.981 165.753 119.14 164.932 119.14Z" fill="#5F43D0"/>
<path d="M207.344 119.126C206.037 119.126 204.992 118.837 204.208 118.258C203.424 117.67 202.967 116.844 202.836 115.78H204.908C204.973 116.321 205.235 116.751 205.692 117.068C206.149 117.376 206.733 117.53 207.442 117.53C208.021 117.53 208.464 117.427 208.772 117.222C209.089 117.017 209.248 116.741 209.248 116.396C209.248 116.069 209.155 115.808 208.968 115.612C208.781 115.407 208.459 115.243 208.002 115.122L206.126 114.604C205.165 114.333 204.46 113.965 204.012 113.498C203.573 113.022 203.354 112.429 203.354 111.72C203.354 111.113 203.508 110.591 203.816 110.152C204.133 109.704 204.577 109.363 205.146 109.13C205.715 108.887 206.383 108.766 207.148 108.766C208.324 108.766 209.262 109.046 209.962 109.606C210.662 110.157 211.059 110.889 211.152 111.804H209.08C208.987 111.309 208.758 110.945 208.394 110.712C208.039 110.479 207.582 110.362 207.022 110.362C206.537 110.362 206.149 110.455 205.86 110.642C205.571 110.829 205.426 111.081 205.426 111.398C205.426 111.641 205.505 111.865 205.664 112.07C205.823 112.266 206.154 112.434 206.658 112.574L208.534 113.092C209.523 113.363 210.233 113.736 210.662 114.212C211.101 114.679 211.32 115.271 211.32 115.99C211.32 116.998 210.97 117.773 210.27 118.314C209.57 118.855 208.595 119.126 207.344 119.126ZM216.932 119.14C216.204 119.14 215.532 119.014 214.916 118.762C214.3 118.501 213.763 118.137 213.306 117.67C212.858 117.203 212.508 116.653 212.256 116.018C212.004 115.374 211.878 114.674 211.878 113.918C211.878 113.162 211.999 112.471 212.242 111.846C212.494 111.221 212.844 110.679 213.292 110.222C213.749 109.755 214.286 109.401 214.902 109.158C215.518 108.906 216.194 108.78 216.932 108.78C217.762 108.78 218.509 108.943 219.172 109.27C219.844 109.587 220.39 110.04 220.81 110.628C221.239 111.207 221.5 111.888 221.594 112.672H219.494C219.372 111.953 219.078 111.412 218.612 111.048C218.145 110.675 217.59 110.488 216.946 110.488C216.376 110.488 215.872 110.623 215.434 110.894C215.004 111.165 214.668 111.557 214.426 112.07C214.183 112.574 214.062 113.185 214.062 113.904C214.062 114.632 214.183 115.262 214.426 115.794C214.678 116.317 215.023 116.723 215.462 117.012C215.9 117.292 216.404 117.432 216.974 117.432C217.58 117.432 218.117 117.25 218.584 116.886C219.05 116.522 219.354 115.981 219.494 115.262H221.622C221.5 116.046 221.225 116.732 220.796 117.32C220.366 117.899 219.82 118.347 219.158 118.664C218.495 118.981 217.753 119.14 216.932 119.14Z" fill="#5F43D0"/>
</g>
<path d="M188.5 130V98" stroke="#5F43D0" stroke-linecap="round"/>
<defs>
<filter id="filter0_dd_7_1169" x="58.5" y="86" width="204" height="80" filterUnits="userSpaceOnUse" color-interpolation-filters="sRGB">
<feFlood flood-opacity="0" result="BackgroundImageFix"/>
<feColorMatrix in="SourceAlpha" type="matrix" values="0 0 0 0 0 0 0 0 0 0 0 0 0 0 0 0 0 0 127 0" result="hardAlpha"/>
<feOffset dy="12"/>
<feGaussianBlur stdDeviation="10"/>
<feComposite in2="hardAlpha" operator="out"/>
<feColorMatrix type="matrix" values="0 0 0 0 0 0 0 0 0 0 0 0 0 0 0 0 0 0 0.03 0"/>
<feBlend mode="normal" in2="BackgroundImageFix" result="effect1_dropShadow_7_1169"/>
<feColorMatrix in="SourceAlpha" type="matrix" values="0 0 0 0 0 0 0 0 0 0 0 0 0 0 0 0 0 0 127 0" result="hardAlpha"/>
<feOffset dy="2"/>
<feGaussianBlur stdDeviation="3"/>
<feComposite in2="hardAlpha" operator="out"/>
<feColorMatrix type="matrix" values="0 0 0 0 0 0 0 0 0 0 0 0 0 0 0 0 0 0 0.05 0"/>
<feBlend mode="normal" in2="effect1_dropShadow_7_1169" result="effect2_dropShadow_7_1169"/>
<feBlend mode="normal" in="SourceGraphic" in2="effect2_dropShadow_7_1169" result="shape"/>
</filter>
</defs>
</svg>
